images/people/people-25.svg

<?xml version="1.0" standalone="no"?><!DOCTYPE svg PUBLIC "-//W3C//DTD SVG 1.1//EN" "http://www.w3.org/Graphics/SVG/1.1/DTD/svg11.dtd"><svg width="120px" height="192px" version="1.1" xmlns="http://www.w3.org/2000/svg" xmlns:xlink="http://www.w3.org/1999/xlink" xml:space="preserve" style="fill-rule:evenodd;clip-rule:evenodd;stroke-linejoin:round;stroke-miterlimit:1.41421;"><g><g id="people-25" transform="matrix(1,0,0,1,-774.599,-48)"><g transform="matrix(1,0,0,1,0,-12)"><path d="M823.021,196.188l3.438,-0.062l-0.424,-14.507l-4.201,-0.056l1.187,14.625Z" style="fill:#72594b;fill-rule:nonzero;"/></g><g transform="matrix(1,0,0,1,0,-12)"><path d="M849.021,196.188l-3.438,-0.062l0.547,-14.547l4.078,-0.016l-1.187,14.625Z" style="fill:#72594b;fill-rule:nonzero;"/></g><g transform="matrix(1,0,0,1,0,-12)"><path d="M847.568,224.156l0.766,4.406l-5.438,0l0.438,-4.422l4.234,0.016Z" style="fill:#ef9c74;fill-rule:nonzero;"/></g><g transform="matrix(1,0,0,1,0,-12)"><path d="M842.018,157.493l-3.75,-3.167l-5.244,0.108l-1.006,-0.108l-4.583,3.5l1.123,15.728l3.003,-0.383l0.381,-0.702l2.059,-0.839l3.68,0.533l1.989,1.085l2.541,-0.153l-0.193,-15.602Z" style="fill:#2a2b2a;fill-rule:nonzero;"/></g><g transform="matrix(1,0,0,1,0,-12)"><path d="M830.812,238l-0.166,5.917l2.008,0.909l5.325,-0.326l-0.333,-6.667l-6.834,0.167Z" style="fill:#ef9c74;fill-rule:nonzero;"/></g><g transform="matrix(1,0,0,1,0,-12)"><path d="M831.047,169.923l1.684,-1.122l1.224,-3.468l2.826,0.806l0.897,2.203l1.937,0.969l0.517,10.869l-4.735,7.82l-4.35,-18.077Z" style="fill:#553f37;fill-rule:nonzero;"/></g><g transform="matrix(1,0,0,1,0,-12)"><path d="M833.894,167.805l2.546,0l2.742,-3.525l-0.489,-6.501l-4.892,-0.818l-3.039,1.209l0.098,6.11l3.034,3.525Z" style="fill:#72594b;fill-rule:nonzero;"/></g><g transform="matrix(1,0,0,1,0,-12)"><path d="M838.521,159.855l1.676,0.028l0.133,2.92l-1.71,-0.089l-0.099,-2.859Z" style="fill:#72594b;fill-rule:nonzero;"/></g><g transform="matrix(1,0,0,1,0,-12)"><path d="M831.021,160.252l-1.691,0.461l0.132,2.448l1.497,0.059l0.062,-2.968Z" style="fill:#72594b;fill-rule:nonzero;"/></g><g transform="matrix(1,0,0,1,0,-12)"><path d="M842.232,192.57l5.444,20.627l-0.108,10.975l-4.234,0.031l-0.854,-10.703l-5.417,-12.583l0.75,13.5l-0.167,23.5l-7,0.253l0.083,-23.502l-1.926,-21.792l13.429,-0.306Z" style="fill:#5c5e5f;fill-rule:nonzero;"/></g><g transform="matrix(1,0,0,1,0,-12)"><path d="M842.442,213.529l0.892,10.689l4.234,-0.062l0.141,-10.672l-5.267,0.045Z" style="fill:#171817;fill-rule:nonzero;"/></g><g transform="matrix(1,0,0,1,0,-12)"><path d="M839.693,169.234l4.472,1.765l6.106,10.563l-4.174,0.038l-4.599,-8.093l0.77,19.062l-13.465,0.307l1.121,-17.649l-3.778,6.523l-4.375,-0.125l5.807,-9.662l3.469,-2.118l1.72,1.981l5.25,0.083l1.676,-2.675Z" style="fill:#fec;fill-rule:nonzero;"/></g><g transform="matrix(1,0,0,1,0,-12)"><path d="M832.79,244.334l-0.299,-38.665l3.413,0.009l0.23,38.476l-3.344,0.18Z" style="fill:#f4f2ed;fill-rule:nonzero;"/></g><g transform="matrix(1,0,0,1,0,-12)"><path d="M833.395,241.944l-1.243,1.289l0.046,6.429l1.38,1.837l2.252,0l1.334,-2.07l-0.183,-6.429l-1.38,-1.056l-2.206,0Z" style="fill:#694;fill-rule:nonzero;"/></g><g transform="matrix(1,0,0,1,0,-12)"><path d="M835.997,212.688l-3.5,-3.531l0,-7.473l3.407,0.063l0.093,10.941Z" style="fill:#c1bebb;fill-rule:nonzero;"/></g><g transform="matrix(1,0,0,1,0,-12)"><path d="M828.353,198.417l11.372,-0.07l-0.002,3.414l-11.317,0l-0.053,-3.344Z" style="fill:#f4f2ed;fill-rule:nonzero;"/></g><g transform="matrix(1,0,0,1,0,-12)"><path d="M838.958,197.859l0.246,4.452l13.491,-1.481l-0.643,-5.347l-13.094,2.376Z" style="fill:#694;fill-rule:nonzero;"/></g><g transform="matrix(1,0,0,1,0,-12)"><path d="M830.238,197.971l-0.248,4.455l-13.488,-1.484l0.64,-5.347l13.096,2.376Z" style="fill:#694;fill-rule:nonzero;"/></g><g transform="matrix(1,0,0,1,0,-12)"><path d="M843.275,195.751l-0.402,2.891l7.334,0.233l0.23,-3.277l-7.162,0.153Z" style="fill:#72594b;fill-rule:nonzero;"/></g><g transform="matrix(1,0,0,1,0,-12)"><path d="M821.088,195.501l-0.402,2.891l7.334,0.233l0.23,-3.277l-7.162,0.153Z" style="fill:#72594b;fill-rule:nonzero;"/></g><g transform="matrix(1,0,0,1,0,-12)"><path d="M827.125,159.293l8.513,-1.63l5.982,0.181l2.113,-3.747l-7.394,-5.329l-4.754,0.038l-7.663,7.709l3.203,2.778Z" style="fill:#36823f;fill-rule:nonzero;"/></g><g transform="matrix(1,0,0,1,0,-12)"><path d="M827.125,159.293l8.513,-1.63l6.34,0.249l1.755,-3.8l-9.501,-0.218l-10.243,2.688l3.136,2.711Z" style="fill:#669b45;fill-rule:nonzero;"/></g></g></g></svg>

<?xml version="1.0" encoding="UTF-8" standalone="no"?>
<!DOCTYPE svg PUBLIC "-//W3C//DTD SVG 1.1//EN" "http://www.w3.org/Graphics/SVG/1.1/DTD/svg11.dtd">
<svg width="100%" height="100%" viewBox="0 0 140 220" version="1.1" xmlns="http://www.w3.org/2000/svg" xmlns:xlink="http://www.w3.org/1999/xlink" xml:space="preserve" xmlns:serif="http://www.serif.com/" style="fill-rule:evenodd;clip-rule:evenodd;stroke-linejoin:round;stroke-miterlimit:2;">
    <g id="people-25" transform="matrix(1.27,0,0,1.27,-989.94,-84.8)">
        <g transform="matrix(1,0,0,1,0,-12)">
            <path d="M823.021,196.188L826.459,196.125L826.035,181.619L821.834,181.563L823.021,196.188Z" style="fill:rgb(114,89,75);fill-rule:nonzero;"/>
        </g>
        <g transform="matrix(1,0,0,1,0,-12)">
            <path d="M849.021,196.188L845.583,196.125L846.131,181.579L850.208,181.563L849.021,196.188Z" style="fill:rgb(114,89,75);fill-rule:nonzero;"/>
        </g>
        <g transform="matrix(1,0,0,1,0,-12)">
            <path d="M847.568,224.156L848.334,228.562L842.896,228.562L843.334,224.14L847.568,224.156Z" style="fill:rgb(239,156,116);fill-rule:nonzero;"/>
        </g>
        <g transform="matrix(1,0,0,1,0,-12)">
            <path d="M842.018,157.493L838.268,154.326L833.024,154.434L832.018,154.326L827.435,157.826L828.558,173.554L831.561,173.171L831.942,172.469L834.001,171.63L837.681,172.163L839.67,173.248L842.211,173.095L842.018,157.493Z" style="fill:rgb(42,43,42);fill-rule:nonzero;"/>
        </g>
        <g transform="matrix(1,0,0,1,0,-12)">
            <path d="M830.812,238L830.646,243.917L832.654,244.826L837.979,244.5L837.646,237.833L830.812,238Z" style="fill:rgb(239,156,116);fill-rule:nonzero;"/>
        </g>
        <g transform="matrix(1,0,0,1,0,-12)">
            <path d="M831.047,169.923L832.731,168.801L833.955,165.333L836.781,166.139L837.678,168.342L839.615,169.311L840.132,180.18L835.397,188L831.047,169.923Z" style="fill:rgb(85,63,55);fill-rule:nonzero;"/>
        </g>
        <g transform="matrix(1,0,0,1,0,-12)">
            <path d="M833.895,167.805L836.441,167.805L839.183,164.28L838.694,157.779L833.802,156.961L830.763,158.17L830.861,164.28L833.895,167.805Z" style="fill:rgb(114,89,75);fill-rule:nonzero;"/>
        </g>
        <g transform="matrix(1,0,0,1,0,-12)">
            <path d="M838.521,159.855L840.198,159.883L840.33,162.803L838.621,162.714L838.521,159.855Z" style="fill:rgb(114,89,75);fill-rule:nonzero;"/>
        </g>
        <g transform="matrix(1,0,0,1,0,-12)">
            <path d="M831.021,160.252L829.33,160.713L829.463,163.161L830.959,163.22L831.021,160.252Z" style="fill:rgb(114,89,75);fill-rule:nonzero;"/>
        </g>
        <g transform="matrix(1,0,0,1,0,-12)">
            <path d="M842.232,192.57L847.676,213.197L847.568,224.172L843.334,224.203L842.48,213.5L837.063,200.917L837.813,214.417L837.646,237.917L830.646,238.17L830.729,214.668L828.803,192.876L842.232,192.57Z" style="fill:rgb(92,94,95);fill-rule:nonzero;"/>
        </g>
        <g transform="matrix(1,0,0,1,0,-12)">
            <path d="M842.442,213.529L843.334,224.218L847.568,224.156L847.709,213.484L842.442,213.529Z" style="fill:rgb(23,24,23);fill-rule:nonzero;"/>
        </g>
        <g transform="matrix(1,0,0,1,0,-12)">
            <path d="M839.693,169.234L844.165,170.999L850.271,181.562L846.097,181.6L841.498,173.507L842.268,192.569L828.803,192.876L829.924,175.227L826.146,181.75L821.771,181.625L827.578,171.963L831.047,169.845L832.767,171.826L838.017,171.909L839.693,169.234Z" style="fill:rgb(255,238,204);fill-rule:nonzero;"/>
        </g>
        <g transform="matrix(1,0,0,1,0,-12)">
            <path d="M832.79,244.334L832.491,205.669L835.904,205.678L836.134,244.154L832.79,244.334Z" style="fill:rgb(244,242,237);fill-rule:nonzero;"/>
        </g>
        <g transform="matrix(1,0,0,1,0,-12)">
            <path d="M833.395,241.944L832.152,243.233L832.198,249.662L833.578,251.499L835.83,251.499L837.164,249.429L836.981,243L835.601,241.944L833.395,241.944Z" style="fill:rgb(102,153,68);fill-rule:nonzero;"/>
        </g>
        <g transform="matrix(1,0,0,1,0,-12)">
            <path d="M835.997,212.688L832.497,209.157L832.497,201.684L835.904,201.747L835.997,212.688Z" style="fill:rgb(193,190,187);fill-rule:nonzero;"/>
        </g>
        <g transform="matrix(1,0,0,1,0,-12)">
            <path d="M828.353,198.417L839.725,198.347L839.723,201.761L828.406,201.761L828.353,198.417Z" style="fill:rgb(244,242,237);fill-rule:nonzero;"/>
        </g>
        <g transform="matrix(1,0,0,1,0,-12)">
            <path d="M838.958,197.859L839.204,202.311L852.695,200.83L852.052,195.483L838.958,197.859Z" style="fill:rgb(102,153,68);fill-rule:nonzero;"/>
        </g>
        <g transform="matrix(1,0,0,1,0,-12)">
            <path d="M830.238,197.971L829.99,202.426L816.502,200.942L817.142,195.595L830.238,197.971Z" style="fill:rgb(102,153,68);fill-rule:nonzero;"/>
        </g>
        <g transform="matrix(1,0,0,1,0,-12)">
            <path d="M843.275,195.751L842.873,198.642L850.207,198.875L850.437,195.598L843.275,195.751Z" style="fill:rgb(114,89,75);fill-rule:nonzero;"/>
        </g>
        <g transform="matrix(1,0,0,1,0,-12)">
            <path d="M821.088,195.501L820.686,198.392L828.02,198.625L828.25,195.348L821.088,195.501Z" style="fill:rgb(114,89,75);fill-rule:nonzero;"/>
        </g>
        <g transform="matrix(1,0,0,1,0,-12)">
            <path d="M827.125,159.293L835.638,157.663L841.62,157.844L843.733,154.097L836.339,148.768L831.585,148.806L823.922,156.515L827.125,159.293Z" style="fill:rgb(54,130,63);fill-rule:nonzero;"/>
        </g>
        <g transform="matrix(1,0,0,1,0,-12)">
            <path d="M827.125,159.293L835.638,157.663L841.978,157.912L843.733,154.112L834.232,153.894L823.989,156.582L827.125,159.293Z" style="fill:rgb(102,155,69);fill-rule:nonzero;"/>
        </g>
    </g>
</svg>
